dist/assets/img/promo/main/phone.svg

<svg width="56" height="40" viewBox="0 0 56 40" fill="none" xmlns="http://www.w3.org/2000/svg">
<path d="M37.4803 33.5978V38.7268L1.64807 16.8649V11.7358L30.1138 29.1054L37.4803 33.5978Z" fill="#565656" stroke="#26144D" stroke-width="1.5" stroke-linecap="round" stroke-linejoin="round"/>
<path d="M54.9049 22.8673L37.4799 33.5982L30.1134 29.1058L47.211 18.1748L54.9049 22.8673Z" fill="#565656" stroke="#26144D" stroke-width="1.5" stroke-linecap="round" stroke-linejoin="round"/>
<path d="M47.2115 18.1742L30.1139 29.1052L1.64819 11.7357L19.0732 1.02295L47.2115 18.1742Z" fill="#248CFF" stroke="#26144D" stroke-width="1.5" stroke-linecap="round" stroke-linejoin="round"/>
<path d="M54.9061 22.8672V27.9962L37.4811 38.7271V33.5981L54.9061 22.8672Z" fill="#565656" stroke="#26144D" stroke-width="1.5" stroke-linecap="round" stroke-linejoin="round"/>
<path d="M19.2929 5.93359L10.1257 11.6264L28.9512 23.1758" stroke="white" stroke-width="1.5" stroke-linecap="round" stroke-linejoin="round"/>
</svg>

<svg width="56" height="40" fill="none" xmlns="http://www.w3.org/2000/svg"><path d="M37.48 33.598v5.129L1.648 16.865v-5.13l28.466 17.37 7.366 4.493z" fill="#565656" stroke="#26144D" stroke-width="1.5" stroke-linecap="round" stroke-linejoin="round"/><path d="M54.905 22.867L37.48 33.598l-7.367-4.492 17.098-10.931 7.694 4.692z" fill="#565656" stroke="#26144D" stroke-width="1.5" stroke-linecap="round" stroke-linejoin="round"/><path d="M47.212 18.174L30.114 29.105 1.648 11.735 19.073 1.024l28.139 17.151z" fill="#248CFF" stroke="#26144D" stroke-width="1.5" stroke-linecap="round" stroke-linejoin="round"/><path d="M54.906 22.867v5.13l-17.425 10.73v-5.129l17.425-10.73z" fill="#565656" stroke="#26144D" stroke-width="1.5" stroke-linecap="round" stroke-linejoin="round"/><path d="M19.293 5.934l-9.167 5.692 18.825 11.55" stroke="#fff" stroke-width="1.5" stroke-linecap="round" stroke-linejoin="round"/></svg>
